!!!OTL: Tongnian ge
!!!ARE: Asia, China, Fujian, Ninghua
!! II, 608
!!!SCT: C1536
!!!YEM: Copyright 1995, estate of Helmut Schaffrath.
**kern
*ICvox
*Ivox
*M2/4
*k[]
*C:
{8a
8a
8a
8e
=1
8a
8a
4ee}
=2
{16cc
16a
16cc
16dd
16a
16a
8a
=3
8g
8a
8e
8r}
=4
{8a
8a
8a
8e
=5
8a
8a
4ee}
=6
{8a
8a
8cc
8a
=7
8cc
8a
4cc}
=8
{16cc
16a
16cc
16dd
16a
16a
8a
=9
8g
8a
8e
8r}
==
!!!AGN: Xiaodiao. NannÅ qing
!!!AMT: simple duple
!!!AIN: vox
!!!EED: Helmut Schaffrath
!!!EEV: 1.0
*-
